lib/logo_tmp/nrk-logo-nrk-super-title-below-on-dark.svg

<svg width="52" height="36" viewBox="0 0 52 36" fill="none" xmlns="http://www.w3.org/2000/svg">
<path d="M25.8859 30.5543C25.967 30.768 26.0058 30.9953 26 31.2237C26.0091 31.532 25.9349 31.8371 25.7849 32.107C25.6405 32.3515 25.4383 32.5573 25.196 32.7063C24.9249 32.8705 24.6268 32.9858 24.3154 33.0468C23.9571 33.1205 23.592 33.1565 23.2261 33.1542C23.0573 33.1542 22.8906 33.15 22.726 33.1416C22.5578 33.1327 22.3905 33.1116 22.2255 33.0784C22.0561 33.0444 21.8788 33.0022 21.6934 32.9518C21.5081 32.9014 21.3013 32.8381 21.073 32.762L21.0221 31.6136C21.2166 31.6811 21.413 31.7444 21.6114 31.8035C21.8098 31.8625 22.0019 31.9109 22.1877 31.9486C22.3733 31.9863 22.5526 32.0161 22.7261 32.0366C22.8835 32.0569 23.0421 32.0675 23.2009 32.0683C23.4328 32.0696 23.6642 32.0464 23.8911 31.9991C24.0819 31.9643 24.2607 31.8818 24.4106 31.7592C24.4766 31.6998 24.5284 31.6266 24.5623 31.5447C24.5962 31.4629 24.6114 31.3745 24.6067 31.2861C24.6072 31.1959 24.5854 31.1071 24.5432 31.0273C24.4987 30.9449 24.4384 30.8721 24.3656 30.813C24.2839 30.746 24.1946 30.6887 24.0995 30.6423C23.9985 30.5919 23.893 30.5457 23.783 30.5035C23.6983 30.4783 23.612 30.4508 23.5232 30.4217C23.4345 30.3925 23.3418 30.3629 23.2446 30.3332C23.1473 30.3034 23.0506 30.2765 22.9533 30.2509C22.856 30.2253 22.7593 30.1964 22.662 30.1629C22.5648 30.1293 22.4701 30.0912 22.3771 30.0492C22.2093 29.9825 22.0482 29.9001 21.896 29.803C21.7482 29.7105 21.6157 29.5956 21.5032 29.4625C21.3887 29.3239 21.3007 29.1656 21.2435 28.9953C21.1767 28.794 21.1445 28.5828 21.1483 28.3708C21.1414 28.0737 21.2068 27.7793 21.3388 27.5127C21.466 27.2681 21.6534 27.0596 21.8834 26.9066C22.1424 26.7372 22.4298 26.6155 22.732 26.5472C23.0847 26.4645 23.446 26.4243 23.8083 26.4273C23.9687 26.4273 24.1313 26.4336 24.2961 26.4462C24.4597 26.4586 24.6225 26.4797 24.7839 26.5095C24.9466 26.5395 25.1073 26.5794 25.265 26.629C25.4295 26.6813 25.5903 26.7447 25.7462 26.8188L25.6452 27.9294C25.5246 27.8695 25.3997 27.8188 25.2714 27.7779C25.1405 27.7358 25.0075 27.6979 24.8724 27.6643C24.7372 27.6307 24.6043 27.603 24.4734 27.582C24.3424 27.561 24.22 27.5463 24.1059 27.5379C23.9918 27.5295 23.8887 27.5254 23.7957 27.5254C23.6129 27.5235 23.4304 27.5403 23.251 27.5757C23.1074 27.6036 22.9687 27.6525 22.8393 27.7208C22.7355 27.7746 22.6482 27.8553 22.5864 27.9544C22.5305 28.05 22.502 28.1591 22.5039 28.2698C22.5014 28.3785 22.53 28.4858 22.5864 28.5789C22.6409 28.6672 22.7118 28.7443 22.7952 28.8063C22.886 28.8731 22.9836 28.9302 23.0865 28.9766C23.1934 29.0294 23.3035 29.0758 23.416 29.1154C23.5339 29.1575 23.6583 29.1954 23.7894 29.229C23.9205 29.2626 24.0515 29.3026 24.1822 29.3489C24.3131 29.3951 24.4419 29.4392 24.5686 29.4815C24.7582 29.547 24.9424 29.627 25.1196 29.721C25.2894 29.8114 25.4433 29.9287 25.5754 30.0683C25.7081 30.2098 25.8133 30.3746 25.8859 30.5543ZM31.3729 26.6418L32.8166 26.4276L32.804 33.0277H31.6769L31.4758 32.2078C31.444 32.2375 31.4123 32.2674 31.3798 32.2959C31.1807 32.4754 30.9618 32.632 30.7274 32.7626C30.5016 32.888 30.2613 32.9856 30.0118 33.0533C29.7494 33.122 29.4789 33.1559 29.2075 33.1539C28.7878 33.1661 28.3717 33.0728 27.9977 32.8825C27.6622 32.7 27.3971 32.4114 27.2443 32.0622C27.075 31.6966 26.9905 31.2275 26.9909 30.655V26.6421L28.4346 26.4278V30.3903C28.4264 30.6723 28.4737 30.9532 28.5739 31.217C28.6555 31.4277 28.8076 31.6038 29.0045 31.7157C29.2394 31.8344 29.501 31.8909 29.7642 31.8797C29.9236 31.8798 30.0827 31.865 30.2394 31.8356C30.394 31.8066 30.5464 31.7665 30.6952 31.7157C30.8474 31.6634 30.9955 31.6002 31.1385 31.5265C31.2151 31.4871 31.293 31.4444 31.3729 31.3986V26.6418ZM39.2917 26.813C38.8387 26.5372 38.3149 26.3991 37.7843 26.4154C37.4635 26.4167 37.1442 26.4593 36.8343 26.542C36.5029 26.6305 36.1837 26.7598 35.8843 26.927C35.8292 26.9576 35.7745 26.992 35.7198 27.026V26.4284L34.276 26.6558V35.6667H35.7198V32.8308C35.9501 32.9277 36.1899 33.0003 36.4353 33.0477C36.7381 33.1048 37.0457 33.1322 37.3538 33.1295C37.926 33.1386 38.4902 32.9949 38.9878 32.7135C39.4776 32.4262 39.8751 32.0059 40.1339 31.5018C40.4168 30.9717 40.5582 30.328 40.5582 29.5708C40.5697 29.0052 40.4596 28.4436 40.2354 27.9238C40.0373 27.4691 39.7091 27.0826 39.2917 26.813ZM38.8354 31.0028C38.6886 31.329 38.4398 31.599 38.1263 31.7727C37.7747 31.9542 37.3823 32.0432 36.9864 32.031C36.8042 32.0315 36.6222 32.0189 36.4418 31.9933C36.2525 31.9653 36.066 31.921 35.8845 31.8607C35.8315 31.8435 35.7763 31.8251 35.7199 31.8054V27.8919L35.7325 27.886C35.9096 27.806 36.0765 27.7386 36.233 27.6839C36.3794 27.632 36.5297 27.5919 36.6825 27.564C36.8204 27.5393 36.9603 27.5267 37.1004 27.5262C37.4801 27.5128 37.857 27.5953 38.1961 27.7661C38.4912 27.9302 38.7228 28.1878 38.8544 28.498C39.0152 28.8945 39.0909 29.3201 39.0766 29.7475C39.0894 30.1785 39.0071 30.607 38.8354 31.0028ZM46.0634 30.0696C46.3137 29.9961 46.5478 29.8763 46.7537 29.7165C46.9297 29.576 47.0707 29.3967 47.1654 29.1927C47.259 28.9865 47.3065 28.7625 47.3047 28.5363C47.3034 28.2704 47.245 28.0079 47.1333 27.7664C47.0149 27.508 46.8423 27.2778 46.627 27.0915C46.3804 26.8812 46.094 26.7223 45.7847 26.6243C45.4038 26.5045 45.0059 26.447 44.6065 26.454C43.9142 26.454 43.3274 26.5991 42.8462 26.8894C42.3666 27.1775 41.9866 27.6046 41.7569 28.1136C41.5011 28.6915 41.3757 29.3183 41.3894 29.9497C41.3894 30.6485 41.5182 31.2375 41.7758 31.7167C42.0341 32.197 42.4404 32.582 42.9348 32.8149C43.4499 33.0674 44.0832 33.1936 44.8348 33.1936C45.1146 33.1954 45.3941 33.1763 45.6709 33.1366C45.9167 33.1008 46.1584 33.0417 46.3929 32.96C46.621 32.8804 46.8532 32.7857 47.0895 32.6761L47.1783 31.6288C46.8497 31.7571 46.5133 31.8646 46.171 31.9505C45.7876 32.0428 45.3941 32.0873 44.9996 32.083C44.6834 32.0877 44.3681 32.0494 44.0622 31.9694C43.8031 31.9081 43.566 31.7766 43.3772 31.5895C43.1884 31.4024 43.0551 31.1669 42.9922 30.9091C42.9401 30.7284 42.9049 30.5434 42.887 30.3563L45.0884 30.2403C45.419 30.2222 45.7463 30.1647 46.0634 30.0696ZM42.7576 29.4188C42.774 29.1111 42.8353 28.8075 42.9394 28.5174C43.044 28.2112 43.2436 27.9459 43.5093 27.76C43.7841 27.5889 44.1039 27.5033 44.4278 27.5142C44.6903 27.5034 44.9514 27.5577 45.1876 27.6724C45.3655 27.7625 45.5147 27.9001 45.6186 28.0699C45.7069 28.2146 45.755 28.3801 45.7578 28.5494C45.761 28.6799 45.728 28.8087 45.6626 28.9218C45.5865 29.0372 45.4756 29.1256 45.346 29.1743C45.1575 29.246 44.9584 29.2865 44.7567 29.2942L42.7576 29.4188ZM52 26.4586L51.8229 27.7587C51.6603 27.7501 51.4973 27.7522 51.3351 27.7651C51.1878 27.7762 51.0417 27.7994 50.8982 27.8342C50.7627 27.8684 50.6295 27.9106 50.4992 27.9608C50.3654 28.013 50.2363 28.0762 50.1132 28.15C50.0201 28.2058 49.9271 28.266 49.8345 28.3261V33.0218H48.3902V26.6354L49.8344 26.4211V27.4352C49.8576 27.4083 49.8803 27.3811 49.9038 27.355C50.0792 27.1584 50.2768 26.9827 50.4927 26.8312C50.7023 26.6848 50.9359 26.5758 51.183 26.5092C51.4497 26.4409 51.7269 26.4236 52 26.4586Z" fill="#00B3C7"/>
<path d="M0 33.0609V26.5388H2.15794V33.0609H0ZM5.09385 27.5768L6.33486 33.0609H3.9732L2.49134 26.5388H3.8159C4.11964 26.5349 4.41435 26.6411 4.64479 26.8374C4.8756 27.0255 5.03418 27.2865 5.09385 27.5768ZM6.65903 33.0609V26.5388H8.81697V33.0609H6.65903ZM10.4469 29.0191C10.2143 29.0213 9.98552 28.961 9.7848 28.8445C9.58677 28.731 9.42227 28.5678 9.30782 28.3714C9.19026 28.1723 9.12941 27.9454 9.13172 27.7147C9.12905 27.4853 9.18996 27.2597 9.30782 27.0624C9.42349 26.8682 9.5878 26.7068 9.7848 26.5939C9.98558 26.4776 10.2143 26.4173 10.4469 26.4194C10.678 26.4169 10.9054 26.4773 11.1044 26.5939C11.2995 26.7078 11.462 26.869 11.5768 27.0624C11.6945 27.2598 11.7554 27.4854 11.7529 27.7147C11.755 27.9453 11.6942 28.1723 11.5768 28.3714C11.4632 28.567 11.3005 28.73 11.1044 28.8445C10.9054 28.9614 10.6778 29.0218 10.4466 29.0191H10.4469ZM12.0863 33.0609V26.5388H14.2444V33.0609H12.0863ZM16.9764 30.103C16.9825 30.1093 17.0288 30.1844 17.1153 30.3281C17.2019 30.4718 17.3145 30.6555 17.4533 30.8792C17.5923 31.1029 17.7389 31.3402 17.8931 31.5912C18.0474 31.8421 18.1925 32.0795 18.3286 32.3031C18.4641 32.5267 18.6185 32.7793 18.7917 33.0609H16.4207C16.2724 32.8221 16.1381 32.6062 16.0177 32.4133C15.8973 32.2204 15.7693 32.0122 15.6336 31.7887C15.4977 31.5653 15.3633 31.3479 15.2304 31.1364C15.0976 30.925 14.9834 30.7397 14.8879 30.5807C14.792 30.4216 14.7256 30.3144 14.6886 30.2592C14.597 30.1222 14.5428 29.9639 14.5313 29.7999C14.5405 29.6425 14.5916 29.4903 14.6794 29.3588C14.7164 29.2976 14.7843 29.1888 14.8831 29.0327C14.9819 28.8765 15.0977 28.6913 15.2304 28.4769C15.3632 28.2626 15.4976 28.0437 15.6336 27.8201C15.7697 27.5966 15.8977 27.3868 16.0177 27.1909C16.1383 26.9951 16.2726 26.7777 16.4207 26.5387H18.7917L16.9577 29.5058C16.901 29.5939 16.869 29.6954 16.8651 29.7999C16.8712 29.9096 16.9098 30.015 16.9761 30.103H16.9764Z" fill="#00B3C7"/>
<path fill-rule="evenodd" clip-rule="evenodd" d="M26.1669 6.10352e-05C19.8833 6.10352e-05 14.7555 5.1097 14.7555 11.3706C14.7555 17.6198 19.8831 22.7416 26.167 22.7416C32.4383 22.7416 37.5785 17.6198 37.5785 11.3706C37.5784 5.1097 32.4382 6.10352e-05 26.1669 6.10352e-05ZM16.9934 11.3706C16.9934 16.419 21.1374 20.5971 26.1669 20.5971C31.2453 20.5971 35.3405 16.419 35.3404 11.3706C35.3404 6.2613 31.2453 2.14444 26.1669 2.14444C21.1374 2.14444 16.9934 6.26141 16.9934 11.3706ZM24.1503 11.4075C24.1525 11.638 24.1085 11.8665 24.0208 12.0798C23.9331 12.293 23.8036 12.4866 23.6397 12.6493C23.4759 12.8119 23.2811 12.9403 23.0668 13.0269C22.8525 13.1135 22.6229 13.1565 22.3917 13.1535C21.9269 13.1535 21.4812 12.9695 21.1526 12.6421C20.824 12.3147 20.6394 11.8706 20.6394 11.4075C20.6394 10.9444 20.824 10.5003 21.1526 10.1729C21.4812 9.84543 21.9269 9.66147 22.3917 9.66147C22.623 9.65841 22.8525 9.70144 23.0669 9.78802C23.2812 9.87461 23.476 10.003 23.6399 10.1657C23.8037 10.3283 23.9333 10.522 24.0209 10.7353C24.1086 10.9485 24.1525 11.1771 24.1503 11.4075ZM32.1304 10.5989L30.9751 11.5173C30.8889 11.5786 30.8889 11.6398 30.9136 11.7379L31.2946 13.1472C31.3195 13.221 31.2825 13.2327 31.2331 13.1958L29.9908 12.3877C29.959 12.3637 29.9202 12.3508 29.8803 12.3508C29.8405 12.3508 29.8017 12.3637 29.7698 12.3877L28.5154 13.2089C28.4662 13.2453 28.4292 13.221 28.454 13.1476L28.835 11.7384C28.8521 11.7013 28.8566 11.6596 28.8477 11.6198C28.8388 11.5799 28.817 11.5441 28.7858 11.5177L27.6177 10.5741C27.5807 10.5376 27.5807 10.4886 27.6422 10.4886L29.1057 10.4273C29.1393 10.4284 29.1723 10.4181 29.1992 10.398C29.2261 10.378 29.2454 10.3494 29.2539 10.317L29.8192 8.90776C29.8562 8.82224 29.9054 8.83394 29.9299 8.90776L30.4219 10.2682C30.4325 10.3173 30.461 10.3608 30.5019 10.3903C30.5428 10.4197 30.5932 10.433 30.6433 10.4275L32.0942 10.4888C32.1802 10.4886 32.1922 10.5498 32.131 10.5989H32.1304Z" fill="#00B3C7"/>
</svg>

<svg xmlns="http://www.w3.org/2000/svg" viewBox="0 0 52 36"><path fill="#00B3C7" d="M25.886 30.554c.081.214.12.441.114.67.01.308-.065.613-.215.883-.145.245-.347.45-.589.6-.271.163-.57.279-.88.34-.359.074-.724.11-1.09.107-.169 0-.335-.004-.5-.012a3.466 3.466 0 0 1-.5-.064 8.136 8.136 0 0 1-.533-.126c-.185-.05-.392-.114-.62-.19l-.05-1.148c.194.067.39.13.588.19a6.697 6.697 0 0 0 1.115.233c.158.02.316.03.475.031.232.002.463-.022.69-.069.19-.035.37-.117.52-.24a.594.594 0 0 0 .196-.473.547.547 0 0 0-.064-.259.711.711 0 0 0-.177-.214 1.36 1.36 0 0 0-.267-.17 3.58 3.58 0 0 0-.316-.14 9.935 9.935 0 0 1-.26-.081 7.558 7.558 0 0 0-.57-.17 3.353 3.353 0 0 1-.576-.202 2.856 2.856 0 0 1-.481-.247 1.684 1.684 0 0 1-.393-.34 1.467 1.467 0 0 1-.26-.468 1.876 1.876 0 0 1-.095-.624 1.838 1.838 0 0 1 .19-.858c.128-.245.315-.453.545-.606.26-.17.547-.291.849-.36a4.55 4.55 0 0 1 1.076-.12c.16 0 .323.007.488.02.164.012.326.033.488.063a3.81 3.81 0 0 1 .962.31l-.1 1.11c-.121-.06-.246-.111-.375-.152a6.154 6.154 0 0 0-.399-.114 4.824 4.824 0 0 0-.766-.126 4.249 4.249 0 0 0-.31-.013 2.67 2.67 0 0 0-.545.05 1.491 1.491 0 0 0-.412.146.651.651 0 0 0-.253.233.604.604 0 0 0-.082.316.571.571 0 0 0 .082.309.82.82 0 0 0 .21.227c.09.067.188.124.29.17.107.053.218.1.33.14.118.041.242.08.373.113.131.034.262.074.393.12l.387.133c.19.065.373.145.55.239.17.09.324.208.456.347.133.142.238.307.31.486Zm5.487-3.912 1.444-.214-.013 6.6h-1.127l-.201-.82-.096.088c-.2.18-.418.336-.653.467a3.2 3.2 0 0 1-.715.29 3.086 3.086 0 0 1-.805.1 2.507 2.507 0 0 1-1.21-.27 1.718 1.718 0 0 1-.753-.82c-.169-.366-.253-.836-.253-1.408v-4.013l1.444-.214v3.962c-.009.282.039.563.139.827.081.21.234.387.43.499.235.118.497.175.76.164.16 0 .319-.015.475-.044a3.287 3.287 0 0 0 .9-.31c.076-.039.154-.082.234-.127v-4.757Zm7.919.171a2.737 2.737 0 0 0-1.508-.398c-.32.002-.64.044-.95.127-.331.088-.65.218-.95.385-.055.03-.11.065-.164.099v-.598l-1.444.228v9.01h1.444v-2.835c.23.097.47.17.715.217.303.057.61.084.919.081a3.216 3.216 0 0 0 1.634-.415c.49-.288.887-.708 1.146-1.212.283-.53.424-1.174.424-1.931a3.955 3.955 0 0 0-.323-1.647 2.521 2.521 0 0 0-.943-1.111Zm-.457 4.19a1.659 1.659 0 0 1-.709.77c-.351.181-.744.27-1.14.258-.182 0-.364-.012-.544-.038a3.298 3.298 0 0 1-.557-.132 7.807 7.807 0 0 1-.165-.056v-3.913l.013-.006a6.16 6.16 0 0 1 .5-.202 2.91 2.91 0 0 1 .45-.12 2.42 2.42 0 0 1 .417-.038c.38-.013.757.07 1.096.24.295.164.527.422.658.732.161.396.237.822.223 1.25.012.43-.07.859-.242 1.255Zm7.228-.933c.25-.074.485-.194.69-.354.177-.14.318-.32.412-.523.094-.207.142-.43.14-.657a1.855 1.855 0 0 0-.172-.77 1.987 1.987 0 0 0-.506-.674 2.429 2.429 0 0 0-.842-.468 3.71 3.71 0 0 0-1.178-.17c-.693 0-1.28.145-1.76.435-.48.288-.86.716-1.09 1.225a4.305 4.305 0 0 0-.368 1.836c0 .698.13 1.288.387 1.767.258.48.664.865 1.159 1.098.515.252 1.148.379 1.9.379.28.001.56-.018.836-.057.246-.036.487-.095.722-.177.228-.08.46-.174.697-.284l.088-1.047a8.373 8.373 0 0 1-1.007.322 4.782 4.782 0 0 1-1.171.132 3.5 3.5 0 0 1-.938-.114 1.446 1.446 0 0 1-1.07-1.06 3.04 3.04 0 0 1-.105-.553l2.201-.116c.331-.018.658-.075.975-.17Zm-3.305-.651c.016-.308.077-.611.181-.902.105-.306.305-.571.57-.757.275-.171.595-.257.919-.246.262-.01.523.044.76.158.177.09.327.228.43.398a.95.95 0 0 1 .14.48.71.71 0 0 1-.095.372.655.655 0 0 1-.317.252 1.857 1.857 0 0 1-.59.12l-1.998.125ZM52 26.459l-.177 1.3a3.693 3.693 0 0 0-.488.006 2.722 2.722 0 0 0-.437.07 3.475 3.475 0 0 0-.399.126 2.56 2.56 0 0 0-.386.189 9.285 9.285 0 0 0-.279.176v4.696H48.39v-6.387l1.444-.214v1.014l.07-.08c.175-.197.373-.372.589-.524a2.21 2.21 0 0 1 .69-.322c.267-.068.544-.085.817-.05ZM0 33.06V26.54h2.158v6.522H0Zm5.094-5.483 1.24 5.484h-2.36L2.49 26.539h1.325c.304-.004.598.102.829.298.23.189.39.45.449.74Zm1.565 5.484v-6.522h2.158v6.522H6.659Zm3.788-4.042a1.295 1.295 0 0 1-.662-.174 1.3 1.3 0 0 1-.477-1.783 1.317 1.317 0 0 1 1.139-.643c.231-.002.458.058.657.175.196.114.358.275.473.468.117.198.178.423.176.653a1.31 1.31 0 0 1-.649 1.13 1.27 1.27 0 0 1-.657.174Zm1.64 4.042v-6.522h2.157v6.522h-2.158Zm4.89-2.958a51.501 51.501 0 0 0 .477.776 164.864 164.864 0 0 1 .875 1.424c.135.224.29.476.463.758H16.42l-.403-.648a59.74 59.74 0 0 1-.384-.624c-.136-.224-.27-.441-.404-.653a33.164 33.164 0 0 1-.342-.555 9.618 9.618 0 0 0-.2-.322.945.945 0 0 1-.157-.46c.01-.157.06-.309.148-.44.037-.061.105-.17.204-.326a68.026 68.026 0 0 0 .75-1.213 283.186 283.186 0 0 1 .788-1.281h2.37l-1.833 2.967a.584.584 0 0 0-.093.294c.006.11.045.215.111.303Z"/><path fill="#00B3C7" fill-rule="evenodd" d="M26.167 0c-6.284 0-11.412 5.11-11.412 11.37 0 6.25 5.128 11.372 11.412 11.372 6.271 0 11.411-5.122 11.411-11.371C37.578 5.11 32.438 0 26.167 0Zm-9.174 11.37c0 5.049 4.144 9.227 9.174 9.227 5.078 0 9.173-4.178 9.173-9.226 0-5.11-4.095-9.227-9.173-9.227-5.03 0-9.174 4.117-9.174 9.227Zm7.157.038a1.724 1.724 0 0 1-1.083 1.619c-.215.087-.444.13-.675.127-.465 0-.91-.184-1.24-.512a1.743 1.743 0 0 1 0-2.47 1.755 1.755 0 0 1 1.24-.51 1.742 1.742 0 0 1 1.629 1.073c.088.213.131.442.13.673Zm7.98-.81-1.155.92c-.086.06-.086.122-.061.22l.38 1.41c.026.073-.012.085-.06.048l-1.243-.808a.183.183 0 0 0-.221 0l-1.255.82c-.049.037-.086.013-.061-.06l.381-1.41a.186.186 0 0 0-.05-.22l-1.167-.944c-.037-.036-.037-.085.024-.085l1.464-.062a.148.148 0 0 0 .148-.11l.565-1.41c.037-.085.086-.073.11 0l.493 1.361a.204.204 0 0 0 .221.16l1.451.06c.086 0 .098.062.037.11Z" clip-rule="evenodd"/></svg>
